media/triforce-of-publishing.svg

<svg xmlns="http://www.w3.org/2000/svg" width="30" height="29" viewBox="0 0 30 29">
  <g fill="none" fill-rule="evenodd" opacity=".94">
    <path class="triforce-published" fill="#669E63" d="M15,0 C11.136,0 8,3.136 8,7 C8,10.864 11.136,14 15,14 C18.864,14 22,10.864 22,7 C22,3.136 18.864,0 15,0 L15,0 Z M13.6,10.5 L10.1,7 L11.087,6.013 L13.6,8.519 L18.913,3.206 L19.9,4.2 L13.6,10.5 L13.6,10.5 Z"/>
    <path class="triforce-scheduled" fill="#D39D22" d="M7,15 C3.15,15 0,18.15 0,22 C0,25.85 3.15,29 7,29 C10.85,29 14,25.85 14,22 C14,18.15 10.85,15 7,15 L7,15 Z M10.5466667,25.3133333 L6.3,22.7 L6.3,17.8 L7.525,17.8 L7.525,22.0466667 L11.2,24.2516667 L10.5466667,25.3133333 L10.5466667,25.3133333 Z"/>
    <path class="triforce-draft" stroke="#C8B585" stroke-width="3" d="M17.5,22 C17.5,25.0215729 19.9784271,27.5 23,27.5 C26.0215729,27.5 28.5,25.0215729 28.5,22 C28.5,18.9784271 26.0215729,16.5 23,16.5 C19.9784271,16.5 17.5,18.9784271 17.5,22 Z"/>
  </g>
</svg>

<svg xmlns="http://www.w3.org/2000/svg" width="30" height="29" viewBox="0 0 30 29"><g fill="none" fill-rule="evenodd" opacity=".94"><path class="triforce-published" fill="#669E63" d="M15 0c-3.864 0-7 3.136-7 7s3.136 7 7 7 7-3.136 7-7-3.136-7-7-7zm-1.4 10.5L10.1 7l.987-.987L13.6 8.519l5.313-5.313.987.994-6.3 6.3z"/><path class="triforce-scheduled" fill="#D39D22" d="M7 15c-3.85 0-7 3.15-7 7s3.15 7 7 7 7-3.15 7-7-3.15-7-7-7zm3.547 10.313L6.3 22.7v-4.9h1.225v4.247l3.675 2.205-.653 1.061z"/><path class="triforce-draft" stroke="#C8B585" stroke-width="3" d="M17.5 22c0 3.022 2.478 5.5 5.5 5.5s5.5-2.478 5.5-5.5-2.478-5.5-5.5-5.5-5.5 2.478-5.5 5.5z"/></g></svg>
